X: 1
T: Bridget O'Malley
T: Brigit O'Malley
M: 3/4
L: 1/8
Z: 2016 John Chambers <jc:trillian.mit.edu>
S: Silly Wizard recording, Ottawa Celtic Jam collection
K: G
D2 |\
"G"G2- GA Bc |  "Bm"dB- B2 d2 | "C(Em)"e2 dB AB | "Em(C)"GE- E2 ef |\
"C(Em)"g2- gf ef | "Bm(G)"ed B2- BA | "Em"B2 e2 d2 | "C"e4 ef |
"C"g2- gf ef | "Bm(G)"ed B2- Bc | "G(Bm)"dB A2 B2 | "Em(C)"GE- E2 EF |\
"C"G2  e2 de | "Bm"B2 A2 AB | "C"A2 G2 "D7"GA | "G"G4 :|
